X:23021
T:Walter Bulwer's Polka #2
R:Polka
C:Trad.
O:England
Z:Paul Hardy's Session Tunebook 2015 (see www.paulhardy.net). Creative Commons cc by-nc-sa licenced.
P:ABACA
M:2/4
L:1/8
Q:1/4=110
K:G
P:A
|:"G"DG GF/G/|"C"AE E2|"D7"F/G/A F/G/A|"G"BG G2|DG GF/G/|"C"AE E2|F/"D7"G/A DE/F/|1 "G"GG GF/E/:|2 "G"GG G2||
P:B
K:D
|:"D"AA "G"B2|"D"AA F2|"A7"GG E/F/G|"D"AA F/G/A/B/|AA "G"B>B|"D"AA F2|"A7"GG E/G/F/E/|"D"DD D2 "^-> A":|
P:C
K:C
|:"C"E3 F|G3 A|G3 E|"G7"GF F2|D3 E|F3 G|F3 D|"C"FE E2|
"C"E3 F|G3 E|G2 c2|"F"cA A2|AA c>A|"G7"GG B>A|GE FB,|"C"CC C2:|

